X: 044
M: C
L: 1/8
K: Gm
d | g>(a {ga}b>)a g<dg<b | f>(g {fg}a>)g f<cf<a | g>(a {ga}b>)a g<dg<a | f>d {d}c>A {F}G2 G ||
d | g>(a {ga}b>)a g<bd<g | f>(g {fg}a>)f c<fA<c | B>dG>d Bdg<b | f<d {d}c>A {F}G2 G |]


